X:0920
T:Her answer was, I'm too young.
M:C
L:1/8
Q:1/4=144 "Lively"
I: ||
Z:Jack Campin * www.campin.me.uk * 2009
K:B Minor
A2|d2d2  d2AG|FGAB A2cd|e2ef edcB|AB(cd) e2
fe|def^g agf2|edcB A2Bc|d2cB c2BA|F2 B2  B2|]
<end>
<start>
